static/logos/plausible-glyph-color.svg

<svg width="38" height="50" viewBox="0 0 38 50" fill="none" xmlns="http://www.w3.org/2000/svg">
<g clip-path="url(#clip0_1_1634)">
<path d="M18.7286 0.000183105C29.0722 0.000183105 37.4573 8.38528 37.4573 18.7288C37.4573 29.0724 29.0722 37.4574 18.7286 37.4574C8.38511 37.4574 0 29.0724 0 18.7288C0 8.38528 8.38511 0.000183105 18.7286 0.000183105Z" fill="url(#paint0_radial_1_1634)"/>
<path d="M15.518 0.210669C11.6478 0.882662 8.38746 2.52531 5.68706 5.16349C2.91196 7.87633 1.19465 11.0372 0.360884 14.9821L0.0746655 16.326L0.0373329 33.1507L0 49.9878H0.34844C0.547548 49.9878 1.18221 49.9256 1.75464 49.8633C6.64524 49.266 10.8017 46.3043 13.0665 41.8119C13.6389 40.667 14.0496 39.3479 14.3358 37.7053C14.5723 36.3115 14.5847 35.8511 14.5473 28.5836L14.51 20.9304L14.8087 20.1838C15.2194 19.1633 16.3518 18.0309 17.3722 17.6202L18.1189 17.3216L25.0877 17.3091C28.9205 17.3091 32.2804 17.2593 32.5418 17.2095C33.7613 16.9731 35.068 15.9527 35.5906 14.8203C35.74 14.5091 35.9391 13.8994 36.0262 13.4887C36.1631 12.8043 36.1507 12.6176 35.9515 11.8461C35.3293 9.55632 33.1391 6.38305 30.8992 4.52883C28.3605 2.42575 25.5605 1.01955 22.5366 0.310223C20.9437 -0.0506614 17.3349 -0.112883 15.518 0.210669Z" fill="url(#paint1_radial_1_1634)"/>
</g>
<defs>
<radialGradient id="paint0_radial_1_1634" cx="0" cy="0" r="1" gradientUnits="userSpaceOnUse" gradientTransform="translate(29.6402 4.6281) scale(36.3297 36.3297)">
<stop stop-color="#2440E6"/>
<stop offset="1" stop-color="#5661B3"/>
</radialGradient>
<radialGradient id="paint1_radial_1_1634" cx="0" cy="0" r="1" gradientUnits="userSpaceOnUse" gradientTransform="translate(-13.332 44.8265) rotate(-53.345) scale(17.8396 28.3518)">
<stop stop-color="#6574CD" stop-opacity="0.5"/>
<stop offset="1" stop-color="#6574CD"/>
</radialGradient>
<clipPath id="clip0_1_1634">
<rect width="37.4624" height="50" fill="white"/>
</clipPath>
</defs>
</svg>

<svg xmlns="http://www.w3.org/2000/svg" width="48.64" height="64" fill="none" viewBox="0 0 38 50"><g clip-path="url(#a)"><path fill="url(#b)" d="M18.729 0C29.072 0 37.457 8.385 37.457 18.73c0 10.343-8.385 18.728-18.728 18.728C8.385 37.457 0 29.072 0 18.73 0 8.385 8.385 0 18.729 0Z"/><path fill="url(#c)" d="M15.518.21c-3.87.673-7.13 2.315-9.83 4.953-2.776 2.713-4.493 5.874-5.327 9.82l-.286 1.343-.038 16.825L0 49.988h.348c.2 0 .834-.062 1.407-.125 4.89-.597 9.047-3.559 11.311-8.051.573-1.145.984-2.464 1.27-4.107.236-1.393.249-1.854.211-9.121l-.037-7.654.299-.746c.41-1.02 1.543-2.153 2.563-2.564l.747-.298 6.969-.013c3.832 0 7.192-.05 7.454-.1 1.22-.236 2.526-1.256 3.049-2.389.149-.31.348-.92.435-1.331.137-.685.125-.871-.075-1.643-.622-2.29-2.812-5.463-5.052-7.317-2.539-2.103-5.338-3.51-8.362-4.219-1.593-.36-5.202-.423-7.019-.1Z"/></g><defs><radialGradient id="b" cx="0" cy="0" r="1" gradientTransform="translate(29.64 4.628) scale(36.3297)" gradientUnits="userSpaceOnUse"><stop stop-color="#2440E6"/><stop offset="1" stop-color="#5661B3"/></radialGradient><radialGradient id="c" cx="0" cy="0" r="1" gradientTransform="matrix(10.65016 -14.31173 22.74508 16.92589 -13.332 44.827)" gradientUnits="userSpaceOnUse"><stop stop-color="#6574CD" stop-opacity=".5"/><stop offset="1" stop-color="#6574CD"/></radialGradient><clipPath id="a"><path fill="#fff" d="M0 0h37.462v50H0z"/></clipPath></defs></svg>
